X:193
T:Hommage \`a Pitou Boudreault
S:Gaston Nolet - SPTDQ
Z:robin.beech@mcgill.ca
M:4/4
L:1/8
K:D
FDDD DDEF | GEEE E2EF | GECE A,CEC | DFAB AFDE |
FDDD DDEF | GEEE E2EF | GECE A,CEF |1 GABc d2DE :|2 GABc d2zc |: 
dedc BcdB | ABAF GFEG | FDDD A,DDD | FGAF GECE |
dedc BcdB | ABAF GFEG | FDDD A,DDD | FGAF ECA,C ::
dcdf edeg | fefa gfga | aDDD A,DDD | fafd gecA | 
dcdf edeg | fefa gfga | aDDD A,DDD | fafd gecA ::
afeF DFA,D | afeF DFA,D |  afeF DFA,D | af df ecBA | 
afeF DFA,D | afeF DFA,D |  afeF DFA,D | af df ecBA :| 

